X:1
T:Harvest, 10.10.7
T:Harvest, 10.10.7
T:Charles Joseph Frost, 1889
T:Public Domain Courtesy of the Cyber Hymnal™
C:Charles Joseph Frost, 1889
Z:Public Domain
Z:Courtesy of the Cyber Hymnal™
%%score ( 1 2 ) ( 3 4 )
L:1/8
M:4/4
K:G
V:1 treble 
V:2 treble 
V:3 bass 
V:4 bass 
V:1
 G4 [GB]2 [GB]2 | [Ge]4 [Gd]4 | [Ac]2 [Ad]2 [AB]2 [Gc]2 | [FA]6 [Fd]2 | [Gc]4 [DB]4 | %5
 [DA]2 [DG]2 [DB]2 [DG]2 | [DF]4 [^CE]4 x2 | D6 D2 | [DE]4 [DF]4 | (G2 d2 z2 c2) | B4 z2 x6 | %11
 [B,G]8 |] %12
V:2
 G4 x4 | x8 | x8 | x8 | x8 | x8 | x10 | D6 D2 | x8 | D4 (E4 | D6) (A4 C2) | x8 |] %12
V:3
 [G,B,]4 [G,D]2 [G,D]2 | C4 [B,D]4 | [A,E]2 [F,D]2 [G,D]2 [C,E]2 | [D,D]6 [D,A,]2 | [E,G,]4 G,4 | %5
 [C,F,]2 [B,,G,]2 [G,,G,]2 [B,,G,]2 | A,6 z2 G,2 | [D,F,]6 [D,F,]2 | [D,G,]4 [C,A,]4 | %9
 ([B,,G,]4 [C,G,]4) | (G,4 F,4) x4 | [G,,G,]8 |] %12
V:4
 x8 | C4 x4 | x8 | x8 | x4 G,4 | x8 | A,,4 A,,4 x2 | x8 | x8 | x8 | D,8 x4 | x8 |] %12

